X: 143
T: Tobie, nieśmiertelny Panie,
C: Mikołaj Gomółka
%%abc-version 2.0
%%abcx-abcm2ps-target-version 5.9.1 (29 Sep 2008)
%%abc-creator hum2abc beta
%%abcx-conversion-date 2021/10/04 07:59:09
%%abc-edited-by Marta Lawrence
%%abcx-initial-encoding-date 2020-02-25
%%humdrum-veritas 3139855724
%%humdrum-veritas-data 1609202895
%%linebreak <none>
%%barnumbers 0
L: 1/4
M: C|
N: Derived from pl-wn--sd-xvi-qu-273--146_gomolka-mikolaj--tobie-niesmiertelny-panie.krn
%%staves [1 2 3 4]
V: 1 clef=treble
V: 2
V: 3 clef=alto
V: 4
K: Bb
[V:1] c4c4 [|] 
[V:2] A4A4 [|] 
[V:3] F4F4 [|] 
[V:4] F,4F,4 [|] 
[V:1] d6c2 [|] 
[V:2] B6G2 [|] 
[V:3] F6=E2 [|] 
[V:4] B,6C2 [|] 
[V:1] c2B2c3B [|] 
[V:2] G2F2G4 [|] 
[V:3] =E2F4E2 [|] 
[V:4] C2D2C4 [|] 
[V:1] A2c4c2 [|] 
[V:2] F2G4AG [|] 
[V:3] F2=E4E2 [|] 
[V:4] F,2C4A,2 [|] 
[V:1] A4d4 [|] 
[V:2] F2>=E2D3C [|] 
[V:3] D2>=E2F6 [|] 
[V:4] D2>C2B,6 [|] 
[V:1] d2c2B4 [|] 
[V:2] D=EF4E2 [|] 
[V:3] C2D2B,2 [|] 
[V:4] A,2G,4 [|] 
[V:1] A2c2c2c2 [|] 
[V:2] F2A2G2A2 [|] 
[V:3] C2F2=E2E2 [|] 
[V:4] F,2F,2C2A,2 [|] 
[V:1] A2f=edcBA [|] 
[V:2] F2D2>=E2F2 [|] 
[V:3] D2>=E2F2F2 [|] 
[V:4] D2>C2B,A,G,F, [|] 
[V:1] B4A2GA [|] 
[V:2] B,2B,2CD=EF [|] 
[V:3] F2=E2F2E2 [|] 
[V:4] G,4F,2C2 [|] 
[V:1] BcdcABc4 [|] 
[V:2] GFD=EFECD [|] 
[V:3] D2B,2C2F2 [|] 
[V:4] G,A,B,A,F,G,A,B, [|] 
[V:1] B2c4 [|] 
[V:2] =E2F2G4 [|] 
[V:3] =E2D2EF2E [|] 
[V:4] C2D2C4 [|] 
[V:1] c32 |]  
[V:2] A32 |]  
[V:3] F32 |]  
[V:4] F,32 |]  


